X: 3
T: The Green Groves Of Erin
R: reel
M: 4/4
L: 1/8
K: Ador
A2BA eABA|G2 (3Bcd gdBG|A2BA eABA|1 BEEF GBdB:|2 BEEF GABd||eaag eaag|eggf egdg|eaag eaag|edef gedg|ea~a2 bgag|edef ~g3e|dega bd'ag|eafa gedB||


Tune 41	Setting 25493

